;FLAVOR:Marlin
;TIME:17771
;Filament used: 11.9231m
;Layer height: 0.2
;MINX:13.001
;MINY:38.502
;MINZ:0.2
;MAXX:207
;MAXY:181.5
;MAXZ:8
;Generated with Cura_SteamEngine 5.3.0
M82 ;absolute extrusion mode
; Ender 3 Custom Start G-code
G92 E0 ; Reset Extruder
G28 ; Home all axes
M104 S175 ; Start heating up the nozzle most of the way
M190 S60 ; Start heating the bed, wait until target temperature reached
M109 S200 ; Finish heating the nozzle
G1 Z2.0 F3000 ; Move Z Axis up little to prevent scratching of Heat Bed
G1 X0.1 Y20 Z0.3 F5000.0 ; Move to start position
G1 X0.1 Y200.0 Z0.3 F1500.0 E15 ; Draw the first line
G1 X0.4 Y200.0 Z0.3 F5000.0 ; Move to side a little
G1 X0.4 Y20 Z0.3 F1500.0 E30 ; Draw the second line
G92 E0 ; Reset Extruder
G1 Z2.0 F3000 ; Move Z Axis up little to prevent scratching of Heat Bed
G1 X5 Y20 Z0.3 F5000.0 ; Move over to prevent blob squish
G92 E0
G92 E0
G1 F1500 E-6.5
;LAYER_COUNT:40
;LAYER:0
M107
G0 F6000 X20.387 Y40.503 Z0.2
;TYPE:SKIRT
G1 F1500 E0
G1 F1200 X21.208 Y40.127 E0.03003
G1 X22.059 Y39.825 E0.06007
G1 X22.934 Y39.599 E0.09013
G1 X23.447 Y39.505 E0.10747
G1 X23.889 Y39.435 E0.12236
G1 X25.178 Y39.314 E0.16542
G1 X25.717 Y39.302 E0.18335
G1 X193.987 Y39.303 E5.78003
G1 X194.706 Y39.314 E5.80395
G1 X195.608 Y39.368 E5.834
G1 X196.191 Y39.446 E5.85357
G1 X196.596 Y39.512 E5.86721
G1 X197.48 Y39.696 E5.89725
G1 X198.344 Y39.958 E5.92728
G1 X199.525 Y40.46 E5.96996
G1 X199.942 Y40.669 E5.98547
G1 X200.731 Y41.109 E6.01552
G1 X201.478 Y41.617 E6.04556
G1 X202.176 Y42.189 E6.07558
G1 X202.563 Y42.554 E6.09327
G1 X202.899 Y42.888 E6.10903
G1 X203.511 Y43.552 E6.13906
G1 X204.061 Y44.268 E6.16909
G1 X204.546 Y45.03 E6.19914
G1 X204.796 Y45.49 E6.21655
G1 X205.006 Y45.902 E6.23193
G1 X205.38 Y46.724 E6.26197
G1 X205.68 Y47.576 E6.29201
G1 X205.903 Y48.451 E6.32204
G1 X206.059 Y49.351 E6.35242
G1 X206.164 Y50.248 E6.38246
G1 X206.188 Y50.75 E6.39918
G1 X206.2 Y51.378 E6.42007
G1 X206.19 Y168.524 E10.31636
G1 X206.18 Y169.225 E10.33968
G1 X206.127 Y170.127 E10.36973
G1 X206.055 Y170.676 E10.38815
G1 X205.994 Y171.061 E10.40111
G1 X205.814 Y171.946 E10.43115
G1 X205.555 Y172.811 E10.46118
G1 X205.222 Y173.651 E10.49123
G1 X204.986 Y174.14 E10.50929
G1 X204.772 Y174.555 E10.52482
G1 X204.323 Y175.338 E10.55484
G1 X203.806 Y176.079 E10.5849
G1 X202.918 Y177.092 E10.6297
G1 X202.609 Y177.401 E10.64424
G1 X201.943 Y178.011 E10.67427
G1 X201.226 Y178.56 E10.70431
G1 X200.462 Y179.042 E10.73435
G1 X199.967 Y179.308 E10.75304
G1 X199.53 Y179.527 E10.7693
G1 X198.705 Y179.895 E10.79935
G1 X197.852 Y180.19 E10.82937
G1 X196.702 Y180.458 E10.86864
G1 X196.275 Y180.532 E10.88306
G1 X195.379 Y180.647 E10.9131
G1 X194.725 Y180.68 E10.93488
G1 X193.578 Y180.7 E10.97304
G1 X26.003 Y180.698 E16.5466
G1 X25.277 Y180.686 E16.57075
G1 X24.376 Y180.631 E16.60078
G1 X23.819 Y180.556 E16.61947
G1 X23.429 Y180.493 E16.63261
G1 X22.545 Y180.31 E16.66263
G1 X21.68 Y180.049 E16.69269
G1 X20.477 Y179.539 E16.73615
G1 X20.049 Y179.324 E16.75208
G1 X19.261 Y178.883 E16.78211
G1 X18.515 Y178.374 E16.81215
G1 X17.817 Y177.801 E16.84218
G1 X17.426 Y177.432 E16.86006
G1 X17.088 Y177.095 E16.87594
G1 X16.478 Y176.43 E16.90595
G1 X15.928 Y175.713 E16.93601
G1 X15.444 Y174.951 E16.96603
G1 X15.217 Y174.533 E16.98185
G1 X15.011 Y174.132 E16.99685
G1 X14.634 Y173.311 E17.0269
G1 X14.332 Y172.46 E17.05693
G1 X14.023 Y171.152 E17.10163
G1 X13.95 Y170.715 E17.11637
G1 X13.841 Y169.818 E17.14642
G1 X13.816 Y169.347 E17.16211
G1 X13.801 Y168.708 E17.18337
G1 X13.802 Y51.52 E21.08106
G1 X13.813 Y50.802 E21.10494
G1 X13.867 Y49.9 E21.135
G1 X13.942 Y49.337 E21.15389
G1 X14.008 Y48.927 E21.1677
G1 X14.191 Y48.043 E21.19772
G1 X14.451 Y47.178 E21.22777
G1 X14.963 Y45.969 E21.27143
G1 X15.175 Y45.547 E21.28714
G1 X15.616 Y44.759 E21.31718
G1 X16.125 Y44.013 E21.34721
G1 X16.698 Y43.314 E21.37727
G1 X17.044 Y42.947 E21.39405
G1 X17.369 Y42.619 E21.40941
G1 X18.033 Y42.006 E21.43947
G1 X18.748 Y41.454 E21.46951
G1 X19.509 Y40.968 E21.49954
G1 X19.96 Y40.722 E21.51663
G1 X20.387 Y40.503 E21.53259
G0 F6000 X20.22 Y40.139
G1 F1200 X21.041 Y39.763 E21.56262
G1 X21.925 Y39.448 E21.59384
G1 X22.834 Y39.212 E21.62507
G1 X23.384 Y39.11 E21.64368
G1 X23.826 Y39.04 E21.65856
G1 X25.169 Y38.914 E21.70343
G1 X25.717 Y38.902 E21.72166
G1 X193.993 Y38.903 E27.31854
G1 X194.73 Y38.915 E27.34305
G1 X195.632 Y38.969 E27.37311
G1 X196.255 Y39.051 E27.39401
G1 X196.678 Y39.12 E27.40826
G1 X197.562 Y39.304 E27.4383
G1 X198.46 Y39.575 E27.46949
G1 X199.704 Y40.102 E27.51443
G1 X200.137 Y40.32 E27.53055
G1 X200.956 Y40.778 E27.56176
G1 X201.703 Y41.286 E27.59181
G1 X202.43 Y41.88 E27.62303
G1 X202.845 Y42.27 E27.64198
G1 X203.193 Y42.617 E27.65832
G1 X203.828 Y43.308 E27.68953
G1 X204.378 Y44.024 E27.71956
G1 X204.883 Y44.815 E27.75078
G1 X205.152 Y45.308 E27.76946
G1 X205.37 Y45.736 E27.78543
G1 X205.744 Y46.558 E27.81547
G1 X206.068 Y47.477 E27.84788
G1 X206.291 Y48.352 E27.87791
G1 X206.456 Y49.304 E27.91005
G1 X206.564 Y50.229 E27.94102
G1 X206.588 Y50.742 E27.9581
G1 X206.6 Y51.378 E27.97926
G1 X206.59 Y168.53 E31.87575
G1 X206.579 Y169.248 E31.89964
G1 X206.524 Y170.179 E31.93065
G1 X206.45 Y170.739 E31.94944
G1 X206.386 Y171.141 E31.96298
G1 X206.206 Y172.026 E31.99302
G1 X205.927 Y172.958 E32.02538
G1 X205.594 Y173.798 E32.05543
G1 X205.342 Y174.323 E32.0748
G1 X205.119 Y174.754 E32.09094
G1 X204.651 Y175.567 E32.12214
G1 X204.107 Y176.343 E32.15366
G1 X203.201 Y177.375 E32.19934
G1 X202.879 Y177.696 E32.21446
G1 X202.186 Y178.329 E32.24567
G1 X201.469 Y178.878 E32.27571
G1 X200.651 Y179.394 E32.30788
G1 X200.146 Y179.666 E32.32696
G1 X199.693 Y179.892 E32.34379
G1 X198.836 Y180.273 E32.37499
G1 X197.943 Y180.58 E32.40639
G1 X196.793 Y180.848 E32.44567
G1 X196.326 Y180.929 E32.46143
G1 X195.43 Y181.044 E32.49148
G1 X194.732 Y181.08 E32.51473
G1 X193.578 Y181.1 E32.55311
G1 X25.996 Y181.098 E38.12691
G1 X25.253 Y181.085 E38.15163
G1 X24.352 Y181.03 E38.18165
G1 X23.755 Y180.951 E38.20168
G1 X23.348 Y180.885 E38.2154
G1 X22.429 Y180.693 E38.24662
G1 X21.564 Y180.432 E38.27667
G1 X20.297 Y179.896 E38.32243
G1 X19.854 Y179.673 E38.33892
G1 X19.066 Y179.232 E38.36896
G1 X18.261 Y178.683 E38.40137
G1 X17.542 Y178.092 E38.43232
G1 X17.144 Y177.715 E38.45056
G1 X16.793 Y177.365 E38.46704
G1 X16.183 Y176.7 E38.49706
G1 X15.59 Y175.927 E38.52946
G1 X15.092 Y175.142 E38.56038
G1 X14.861 Y174.716 E38.5765
G1 X14.647 Y174.299 E38.59209
G1 X14.27 Y173.478 E38.62214
G1 X13.955 Y172.594 E38.65335
G1 X13.628 Y171.218 E38.70039
G1 X13.553 Y170.763 E38.71573
G1 X13.444 Y169.866 E38.74578
G1 X13.416 Y169.356 E38.76277
G1 X13.401 Y168.708 E38.78433
G1 X13.402 Y51.514 E42.68222
G1 X13.414 Y50.778 E42.7067
G1 X13.468 Y49.876 E42.73675
G1 X13.547 Y49.273 E42.75698
G1 X13.616 Y48.846 E42.77137
G1 X13.799 Y47.962 E42.80139
G1 X14.068 Y47.063 E42.8326
G1 X14.606 Y45.789 E42.8786
G1 X14.826 Y45.352 E42.89487
G1 X15.267 Y44.564 E42.92491
G1 X15.816 Y43.759 E42.95731
G1 X16.389 Y43.06 E42.98738
G1 X16.76 Y42.665 E43.0054
G1 X17.098 Y42.325 E43.02135
G1 X17.789 Y41.689 E43.05258
G1 X18.504 Y41.137 E43.08262
G1 X19.317 Y40.617 E43.11472
G1 X19.777 Y40.366 E43.13215
G1 X20.22 Y40.139 E43.14871
G0 F6000 X20.053 Y39.775
G1 F1200 X20.874 Y39.399 E43.17874
G1 X21.791 Y39.071 E43.21113
G1 X22.733 Y38.825 E43.24352
G1 X23.321 Y38.715 E43.26341
G1 X23.763 Y38.645 E43.2783
G1 X25.16 Y38.514 E43.32496
G1 X25.717 Y38.502 E43.34349
G1 X194 Y38.503 E48.94061
G1 X194.754 Y38.516 E48.96569
G1 X195.684 Y38.572 E48.99668
G1 X196.319 Y38.656 E49.01798
G1 X196.76 Y38.728 E49.03285
G1 X197.644 Y38.912 E49.06288
G1 X198.576 Y39.192 E49.09525
G1 X199.884 Y39.745 E49.14248
G1 X200.332 Y39.971 E49.15917
G1 X201.181 Y40.447 E49.19154
G1 X201.928 Y40.955 E49.22159
G1 X202.683 Y41.57 E49.25397
G1 X203.127 Y41.987 E49.27423
G1 X203.488 Y42.346 E49.29117
G1 X204.123 Y43.037 E49.32238
G1 X204.695 Y43.78 E49.35357
G1 X205.234 Y44.623 E49.38685
G1 X205.508 Y45.126 E49.4059
G1 X205.734 Y45.57 E49.42247
G1 X206.108 Y46.392 E49.45251
G1 X206.456 Y47.378 E49.48728
G1 X206.679 Y48.253 E49.51732
G1 X206.853 Y49.258 E49.55124
G1 X206.964 Y50.21 E49.58312
G1 X206.988 Y50.734 E49.60056
G1 X207 Y51.378 E49.62199
G1 X206.99 Y168.536 E53.51868
G1 X206.978 Y169.272 E53.54316
G1 X206.921 Y170.231 E53.57511
G1 X206.845 Y170.802 E53.59427
G1 X206.778 Y171.221 E53.60839
G1 X206.598 Y172.106 E53.63842
G1 X206.299 Y173.105 E53.67311
G1 X205.955 Y173.971 E53.7041
G1 X205.697 Y174.507 E53.72388
G1 X205.466 Y174.954 E53.74062
G1 X204.979 Y175.797 E53.773
G1 X204.435 Y176.573 E53.80452
G1 X203.502 Y177.639 E53.85164
G1 X203.149 Y177.991 E53.86822
G1 X202.429 Y178.647 E53.90061
G1 X201.712 Y179.196 E53.93065
G1 X200.841 Y179.746 E53.96491
G1 X200.325 Y180.024 E53.98441
G1 X199.855 Y180.258 E54.00187
G1 X198.998 Y180.639 E54.03306
G1 X198.034 Y180.97 E54.06696
G1 X196.884 Y181.238 E54.10624
G1 X196.377 Y181.326 E54.12335
G1 X195.481 Y181.441 E54.1534
G1 X194.739 Y181.48 E54.17811
G1 X193.578 Y181.5 E54.21673
G1 X25.989 Y181.498 E59.79076
G1 X25.229 Y181.484 E59.81605
G1 X24.3 Y181.427 E59.847
G1 X23.691 Y181.346 E59.86744
G1 X23.266 Y181.277 E59.88176
G1 X22.347 Y181.085 E59.91298
G1 X21.448 Y180.815 E59.9442
G1 X20.117 Y180.253 E59.99226
G1 X19.659 Y180.022 E60.00932
G1 X18.871 Y179.581 E60.03935
G1 X18.007 Y178.992 E60.07413
G1 X17.288 Y178.401 E60.10509
G1 X16.862 Y177.998 E60.12459
G1 X16.498 Y177.635 E60.14169
G1 X15.888 Y176.97 E60.1717
G1 X15.252 Y176.141 E60.20646
G1 X14.74 Y175.333 E60.23827
G1 X14.505 Y174.899 E60.25469
G1 X14.283 Y174.466 E60.27087
G1 X13.906 Y173.645 E60.30092
G1 X13.578 Y172.728 E60.33331
G1 X13.233 Y171.283 E60.38272
G1 X13.156 Y170.811 E60.39863
G1 X13.047 Y169.914 E60.42868
G1 X13.016 Y169.365 E60.44697
G1 X13.001 Y168.708 E60.46883
G1 X13.002 Y51.507 E64.36695
G1 X13.015 Y50.754 E64.392
G1 X13.071 Y49.824 E64.42299
G1 X13.152 Y49.209 E64.44362
G1 X13.224 Y48.765 E64.45858
G1 X13.407 Y47.881 E64.4886
G1 X13.685 Y46.948 E64.52098
G1 X14.249 Y45.609 E64.56931
G1 X14.477 Y45.157 E64.58615
G1 X14.918 Y44.369 E64.61618
G1 X15.507 Y43.505 E64.65096
G1 X16.097 Y42.786 E64.68189
G1 X16.476 Y42.383 E64.70029
G1 X16.827 Y42.031 E64.71683
G1 X17.545 Y41.372 E64.74924
G1 X18.288 Y40.8 E64.78043
G1 X19.101 Y40.28 E64.81253
G1 X19.595 Y40.01 E64.83125
G1 X20.053 Y39.775 E64.84837
G1 F1500 E58.34837
;MESH:CC_Frame.stl
G0 F6000 X25.304 Y48.854
G0 X194.459 Y169.9
;TYPE:WALL-INNER
G1 F1500 E64.84837
G1 F1200 X194.744 Y169.856 E64.85797
G1 X195.023 Y169.723 E64.86825
G1 X195.213 Y169.532 E64.87721
G1 X195.355 Y169.252 E64.88765
G1 X195.391 Y169.035 E64.89496
G1 X195.399 Y51.02 E68.82016
G1 X195.352 Y50.725 E68.83009
G1 X195.223 Y50.474 E68.83948
G1 X195.027 Y50.276 E68.84875
G1 X194.776 Y50.148 E68.85812
G1 X194.49 Y50.102 E68.86775
G1 X25.52 Y50.101 E74.48772
G1 X25.224 Y50.148 E74.49769
G1 X24.978 Y50.274 E74.50688
G1 X24.774 Y50.478 E74.51648
G1 X24.648 Y50.724 E74.52567
G1 X24.602 Y51.019 E74.5356
G1 X24.6 Y168.977 E78.4589
G1 X24.649 Y169.276 E78.46897
G1 X24.775 Y169.522 E78.47817
G1 X24.969 Y169.719 E78.48736
G1 X25.226 Y169.851 E78.49697
G1 X25.517 Y169.899 E78.50678
G1 X194.459 Y169.9 E84.12582
G0 F6000 X194.489 Y170.3
;TYPE:WALL-OUTER
G1 F1200 X194.863 Y170.243 E84.1384
G1 X195.264 Y170.051 E84.15319
G1 X195.548 Y169.766 E84.16657
G1 X195.738 Y169.394 E84.18046
G1 X195.791 Y169.067 E84.19148
G1 X195.799 Y50.988 E88.1188
G1 X195.737 Y50.599 E88.1319
G1 X195.551 Y50.236 E88.14547
G1 X195.265 Y49.948 E88.15897
G1 X194.901 Y49.763 E88.17255
G1 X194.522 Y49.702 E88.18532
G1 X25.488 Y49.701 E93.80741
G1 X25.098 Y49.763 E93.82055
G1 X24.74 Y49.946 E93.83392
G1 X24.446 Y50.24 E93.84775
G1 X24.263 Y50.599 E93.86115
G1 X24.202 Y50.987 E93.87421
G1 X24.2 Y169.009 E97.79964
G1 X24.263 Y169.402 E97.81288
G1 X24.447 Y169.76 E97.82627
G1 X24.729 Y170.046 E97.83963
G1 X25.1 Y170.236 E97.85349
G1 X25.485 Y170.299 E97.86647
G1 X194.489 Y170.3 E103.48756
G1 F1500 E96.98756
G0 F6000 X194.469 Y170.001
G0 X25.53 Y169.738
G0 X25.069 Y169.658
G0 X25.187 Y169.427
;TYPE:SKIN
G1 F1500 E103.48756
G1 F1200 X24.997 Y169.164 E103.49835
G1 X24.961 Y168.945 E103.50573
G1 X24.963 Y51.046 E107.42707
G1 X24.995 Y50.838 E107.43407
G1 X25.069 Y50.694 E107.43946
G1 X25.193 Y50.568 E107.44533
G1 X25.335 Y50.497 E107.45062
G1 X25.552 Y50.462 E107.45793
G1 X194.457 Y50.463 E113.07573
G1 X194.664 Y50.497 E113.08271
G1 X194.812 Y50.572 E113.08822
G1 X195.006 Y50.837 E113.09915
G1 X195.038 Y51.048 E113.10625
G1 X195.031 Y169.083 E117.03211
G1 X194.911 Y169.323 E117.04103
G1 X194.81 Y169.424 E117.04578
G1 X194.633 Y169.509 E117.05231
G1 X194.432 Y169.54 E117.05908
G1 X25.551 Y169.539 E122.67608
G1 X25.336 Y169.502 E122.68334
G1 X25.187 Y169.427 E122.68889
G1 F1500 E116.18889
G0 F6000 X25.069 Y169.658
G0 X24.804 Y169.226
G0 X24.761 Y168.964
G0 X24.763 Y51.032
G0 X24.906 Y50.574
G0 X25.275 Y50.303
G0 X194.347 Y50.202
G0 X194.346 Y50.662
G1 F1500 E122.68889
G1 F1200 X194.837 Y51.153 E122.71198
G0 F6000 X194.837 Y51.719
G1 F1200 X193.781 Y50.662 E122.76168
G0 F6000 X193.215 Y50.662
G1 F1200 X194.837 Y52.284 E122.83797
G0 F6000 X194.837 Y52.85
G1 F1200 X192.649 Y50.662 E122.94089
G0 F6000 X192.084 Y50.662
G1 F1200 X194.837 Y53.416 E123.0704
G0 F6000 X194.837 Y53.981
G1 F1200 X191.518 Y50.662 E123.22652
G0 F6000 X190.952 Y50.662
G1 F1200 X194.837 Y54.547 E123.40926
G0 F6000 X194.837 Y55.113
G1 F1200 X190.387 Y50.662 E123.61859
G0 F6000 X189.821 Y50.662
G1 F1200 X194.837 Y55.679 E123.85456
G0 F6000 X194.837 Y56.244
G1 F1200 X189.255 Y50.662 E124.11712
G0 F6000 X188.69 Y50.662
G1 F1200 X194.837 Y56.81 E124.40627
G0 F6000 X194.837 Y57.376
G1 F1200 X188.124 Y50.662 E124.72206
G0 F6000 X187.558 Y50.662
G1 F1200 X194.837 Y57.941 E125.06444
G0 F6000 X194.837 Y58.507
G1 F1200 X186.992 Y50.662 E125.43344
G0 F6000 X186.427 Y50.662
G1 F1200 X194.837 Y59.073 E125.82905
G0 F6000 X194.837 Y59.638
G1 F1200 X185.861 Y50.662 E126.25125
G0 F6000 X185.295 Y50.662
G1 F1200 X194.837 Y60.204 E126.70008
G0 F6000 X194.837 Y60.77
G1 F1200 X184.73 Y50.662 E127.1755
G0 F6000 X184.164 Y50.662
G1 F1200 X194.837 Y61.335 E127.67753
G0 F6000 X194.836 Y61.9
G1 F1200 X183.598 Y50.662 E128.20613
G0 F6000 X183.033 Y50.662
G1 F1200 X194.836 Y62.466 E128.76133
G0 F6000 X194.836 Y63.032
G1 F1200 X182.467 Y50.662 E129.34315
G0 F6000 X181.901 Y50.662
G1 F1200 X194.836 Y63.597 E129.95158
G0 F6000 X194.836 Y64.163
G1 F1200 X181.336 Y50.662 E130.5866
G0 F6000 X180.77 Y50.662
G1 F1200 X194.836 Y64.729 E131.24824
G0 F6000 X194.836 Y65.294
G1 F1200 X180.204 Y50.662 E131.93649
G0 F6000 X179.639 Y50.662
G1 F1200 X194.836 Y65.86 E132.65133
G0 F6000 X194.836 Y66.426
G1 F1200 X179.073 Y50.662 E133.3928
G0 F6000 X178.507 Y50.662
G1 F1200 X194.836 Y66.992 E134.16089
G0 F6000 X194.836 Y67.557
G1 F1200 X177.942 Y50.662 E134.95555
G0 F6000 X177.376 Y50.662
G1 F1200 X194.836 Y68.123 E135.77684
G0 F6000 X194.836 Y68.689
G1 F1200 X176.81 Y50.662 E136.62475
G0 F6000 X176.244 Y50.662
G1 F1200 X194.836 Y69.254 E137.49926
G0 F6000 X194.836 Y69.82
G1 F1200 X175.679 Y50.662 E138.40037
G0 F6000 X175.113 Y50.662
G1 F1200 X194.836 Y70.386 E139.32811
G0 F6000 X194.836 Y70.951
G1 F1200 X174.547 Y50.662 E140.28244
G0 F6000 X173.982 Y50.662
G1 F1200 X194.836 Y71.517 E141.26337
G0 F6000 X194.836 Y72.083
G1 F1200 X173.416 Y50.662 E142.27093
G0 F6000 X172.85 Y50.662
G1 F1200 X194.836 Y72.648 E143.30508
G0 F6000 X194.836 Y73.213
G1 F1200 X172.285 Y50.662 E144.36581
G0 F6000 X171.719 Y50.662
G1 F1200 X194.836 Y73.779 E145.45316
G0 F6000 X194.836 Y74.345
G1 F1200 X171.153 Y50.662 E146.56714
G0 F6000 X170.588 Y50.662
G1 F1200 X194.836 Y74.91 E147.70769
G0 F6000 X194.836 Y75.476
G1 F1200 X170.022 Y50.662 E148.87486
G0 F6000 X169.456 Y50.662
G1 F1200 X194.836 Y76.042 E150.06866
G0 F6000 X194.836 Y76.607
G1 F1200 X168.891 Y50.662 E151.28904
G0 F6000 X168.325 Y50.662
G1 F1200 X194.836 Y77.173 E152.53603
G0 F6000 X194.836 Y77.739
G1 F1200 X167.759 Y50.662 E153.80965
G0 F6000 X167.193 Y50.662
G1 F1200 X194.836 Y78.305 E155.10989
G0 F6000 X194.836 Y78.87
G1 F1200 X166.628 Y50.662 E156.43671
G0 F6000 X166.062 Y50.662
